X: 32867
T: Porthole Of The Kelp
R: reel
M: 4/4
K: Edorian
EF|:G3F GABA|G3A FEDF|FGGF GABA|GEFD EDBD|
G3F GABc|dBAG FEDF|EFGA Beec|dBAG FEDF:|
|:Eeed edBA|G3A FEDF|Eeed edBA|Beed e2ef|
ge e2 edBA|G3A FEDF|EFGA Beec|dBAG FEDF:|
EF|:G3F G2EF|GFGA FDDF|G2EF GABA|GEFD BEEF|
G3F GABe|dBAG FEDF|EFGA Beec|dBAG FEDF:|
|:Eeed edBA|G3A FEDF|Eeed edBA|Beed e2ef|
feed edBA|G3A FEDF|EFGA Beec|dBAG FEDF:|

